packages/icons/src/components/Icon/assets/small-outline/unlock.svg

<svg width="16" height="16" viewBox="0 0 16 16" fill="none" xmlns="http://www.w3.org/2000/svg">
<path fill-rule="evenodd" clip-rule="evenodd" d="M8.34291 5.02867C8.34291 3.13512 9.87793 1.6001 11.7715 1.6001C13.665 1.6001 15.2 3.13512 15.2 5.02867V7.38581C15.2 7.71718 14.9314 7.98581 14.6 7.98581C14.2687 7.98581 14 7.71718 14 7.38581V5.02867C14 3.79786 13.0023 2.8001 11.7715 2.8001C10.5407 2.8001 9.54291 3.79786 9.54291 5.02867V6.78985C10.5955 6.85615 11.4286 7.73083 11.4286 8.8001V13.043C11.4286 14.1554 10.5268 15.0572 9.41433 15.0572H2.81433C1.70188 15.0572 0.800049 14.1554 0.800049 13.043V8.8001C0.800049 7.68764 1.70188 6.78581 2.81433 6.78581H8.34291V5.02867ZM2.81433 7.98581C2.36462 7.98581 2.00005 8.35038 2.00005 8.8001V13.043C2.00005 13.4927 2.36462 13.8572 2.81433 13.8572H9.41433C9.86405 13.8572 10.2286 13.4927 10.2286 13.043V8.8001C10.2286 8.35038 9.86405 7.98581 9.41433 7.98581H2.81433Z" fill="black"/>
</svg>

<svg xmlns="http://www.w3.org/2000/svg" width="16" height="16" fill="none" viewBox="0 0 16 16">
    <path fill="#000" fill-rule="evenodd" d="M8.343 5.029a3.429 3.429 0 0 1 6.857 0v2.357a.6.6 0 1 1-1.2 0V5.029a2.229 2.229 0 1 0-4.457 0v1.76A2.014 2.014 0 0 1 11.429 8.8v4.243a2.014 2.014 0 0 1-2.015 2.014h-6.6A2.014 2.014 0 0 1 .8 13.043V8.8c0-1.112.902-2.014 2.014-2.014h5.529zM2.814 7.986A.814.814 0 0 0 2 8.8v4.243c0 .45.365.814.814.814h6.6c.45 0 .815-.364.815-.814V8.8a.814.814 0 0 0-.815-.814z" clip-rule="evenodd"/>
</svg>
